art/logos/jupace.svg

<?xml version="1.0" encoding="UTF-8" standalone="no"?>
<!-- Created by ERK -->

<svg
   version="1.1"
   viewBox="0 0 680 320"
   id="svg18"
   sodipodi:docname="jupace.svg"
   width="680"
   height="320"
   inkscape:version="1.4 (86a8ad7, 2024-10-11)"
   xmlns:inkscape="http://www.inkscape.org/namespaces/inkscape"
   xmlns:sodipodi="http://sodipodi.sourceforge.net/DTD/sodipodi-0.dtd"
   xmlns="http://www.w3.org/2000/svg"
   xmlns:svg="http://www.w3.org/2000/svg">
  <defs
     id="defs18" />
  <sodipodi:namedview
     id="namedview18"
     pagecolor="#ffffff"
     bordercolor="#000000"
     borderopacity="0.25"
     inkscape:showpageshadow="2"
     inkscape:pageopacity="0.0"
     inkscape:pagecheckerboard="true"
     inkscape:deskcolor="#d1d1d1"
     inkscape:zoom="3.0783333"
     inkscape:cx="350.1895"
     inkscape:cy="161.61343"
     inkscape:window-width="3840"
     inkscape:window-height="2066"
     inkscape:window-x="-11"
     inkscape:window-y="-11"
     inkscape:window-maximized="1"
     inkscape:current-layer="svg18" />
  <g
     id="g19"
     inkscape:label="Logo"
     transform="translate(38.573311,10)">
    <g
       fill="#000000"
       id="g11"
       inkscape:label="JupiterACE">
      <path
         d="M 63.81,128.31 C 57.09,148.66 37.8,161.42 16.55,155.65 2.7,151.89 0.68,139.77 4.66,127.68 a 0.64,0.63 -80.3 0 1 0.6,-0.43 h 18.22 a 0.45,0.45 0 0 1 0.45,0.49 q -0.22,2.18 -0.56,4.26 c -1.15,7.16 5.98,9.81 11.56,7.68 5.15,-1.97 9.07,-10.32 10.71,-15.89 Q 54.54,93.5 63.58,63.25 a 0.69,0.69 0 0 1 0.66,-0.49 l 18.63,-0.02 a 0.51,0.5 -81.8 0 1 0.48,0.65 q -14.66,50.14 -19.54,64.92 z"
         id="path2"
         inkscape:label="J" />
      <path
         d="m 109.18,146.94 a 0.46,0.46 0 0 0 -0.81,-0.32 q -6.82,8.57 -16.86,10.1 C 73.3,159.51 71.69,143.15 75.35,130.27 q 6.14,-21.64 12.7,-43.08 a 0.63,0.62 8 0 1 0.6,-0.45 l 18.63,-0.02 a 0.53,0.53 0 0 1 0.51,0.69 q -6.29,20.75 -12.34,41.46 c -1.12,3.82 -2.94,11.09 3.48,11.47 q 6.35,0.39 11.18,-3.78 a 1.91,1.89 78.4 0 0 0.56,-0.86 L 125.15,87.42 A 0.9,0.9 0 0 1 126,86.78 l 18.45,-0.1 a 0.61,0.6 -82.1 0 1 0.58,0.78 l -20.53,69.11 a 0.81,0.79 -81.6 0 1 -0.76,0.58 l -14.67,0.06 a 0.69,0.69 0 0 1 -0.69,-0.75 z"
         id="path6"
         inkscape:label="u" />
      <path
         d="m 172.96,93.18 a 0.38,0.37 -16.1 0 0 0.63,0.34 c 13.41,-13 34.2,-7.55 32.87,13.69 q -1.22,19.32 -11.93,35.07 c -6,8.83 -16.89,16.04 -27.78,14.69 q -6.77,-0.85 -9.8,-7 a 0.24,0.24 0 0 0 -0.44,0.04 l -9.59,32.59 a 0.82,0.82 0 0 1 -0.79,0.59 l -18.6,0.07 a 0.53,0.52 8.2 0 1 -0.51,-0.67 L 155.5,87.18 a 0.6,0.6 0 0 1 0.57,-0.42 l 17.34,-0.03 a 0.8,0.8 0 0 1 0.78,0.98 z m 13.16,17.81 c 1.38,-11.57 -8.96,-11.06 -14.93,-5.62 q -1.76,1.61 -2.76,4.89 -3.54,11.64 -6.96,23.33 c -0.68,2.33 -0.78,4.29 1.56,5.44 15.71,7.73 21.84,-17.58 23.09,-28.04 z"
         id="path7"
         inkscape:label="p" />
      <path
         d="m 243.29,87.31 -20.48,68.34 a 0.49,0.49 0 0 1 -0.46,0.35 h -18.92 a 0.49,0.49 0 0 1 -0.47,-0.63 l 20.42,-68.24 a 0.49,0.49 0 0 1 0.46,-0.35 l 18.98,-0.1 a 0.49,0.49 0 0 1 0.47,0.63 z"
         id="path8"
         inkscape:label="i" />
      <path
         d="m 233.18,56.25 h 18.57 a 0.67,0.67 0 0 1 0.64,0.86 l -4.12,13.9 a 0.67,0.67 0 0 1 -0.64,0.48 l -18.56,0.01 a 0.67,0.67 0 0 1 -0.65,-0.86 l 4.12,-13.91 a 0.67,0.67 0 0 1 0.64,-0.48 z"
         id="path1"
         inkscape:label="i" />
      <path
         d="m 253.48,101.63 -7.32,0.17 a 0.72,0.72 0 0 1 -0.7,-0.92 l 4.12,-13.73 a 0.64,0.64 0 0 1 0.63,-0.46 l 7.59,0.04 a 1.03,1.03 0 0 0 0.99,-0.74 l 4.8,-15.98 a 0.71,0.71 0 0 1 0.68,-0.51 h 18.78 a 0.42,0.42 0 0 1 0.4,0.54 l -4.8,16.06 a 0.38,0.37 8.6 0 0 0.36,0.48 h 8.85 a 0.48,0.47 -81.7 0 1 0.45,0.61 l -4.18,14.05 a 0.73,0.72 -81.2 0 1 -0.69,0.51 h -8.93 a 0.69,0.69 0 0 0 -0.66,0.49 q -5.03,16.27 -9.7,32.59 c -1.72,6.01 3.54,5.86 7.38,4.97 a 0.62,0.61 -0.3 0 1 0.74,0.73 l -3.2,14.47 a 0.97,0.96 89.1 0 1 -0.69,0.72 c -15.9,4.25 -29.92,-0.07 -24.31,-19.95 q 4.71,-16.66 9.88,-33.52 a 0.48,0.48 0 0 0 -0.47,-0.62 z"
         id="path3"
         inkscape:label="t" />
      <path
         d="M 285.17,119.5 C 291.73,98.77 308.73,81.94 332,86.25 q 5.39,1 8.87,5.34 c 8.09,10.08 2.33,25.78 -1.23,35.95 a 0.7,0.7 0 0 1 -0.66,0.46 h -35.44 a 0.43,0.42 -84.1 0 0 -0.41,0.34 c -3.74,18.39 20.35,11.44 28.14,7.94 a 0.43,0.43 0 0 1 0.61,0.37 l 0.65,12.28 a 0.81,0.8 -16.7 0 1 -0.41,0.75 c -26.66,15.09 -59.33,8.98 -46.95,-30.18 z m 22.48,-4.8 15.68,0.06 a 1.19,1.19 0 0 0 1.14,-0.84 c 1,-3.24 2.24,-7.22 0.29,-10.27 a 1.54,1.52 -5.6 0 0 -0.74,-0.6 c -8.48,-3.22 -14.27,4.31 -16.71,11.16 a 0.36,0.36 0 0 0 0.34,0.49 z"
         id="path4"
         inkscape:label="e" />
      <path
         d="m 377.24,95.48 a 0.34,0.34 0 0 0 0.62,0.27 c 4.99,-7.49 10.67,-8.92 19.37,-9.39 a 0.36,0.36 0 0 1 0.35,0.49 l -7.09,17.39 a 0.79,0.79 0 0 1 -0.73,0.49 c -7.72,-0.03 -14.65,-0.27 -17.22,8.41 q -6.28,21.15 -12.57,42.29 a 0.82,0.82 0 0 1 -0.78,0.57 l -18.83,-0.01 a 0.35,0.34 8 0 1 -0.34,-0.44 l 20.44,-68.27 a 0.74,0.73 -81.4 0 1 0.7,-0.52 l 17.66,-0.04 a 0.43,0.42 -83 0 1 0.41,0.53 z"
         id="path5"
         inkscape:label="r" />
      <path
         d="m 260.33,225.5 h -19.01 a 0.88,0.88 0 0 0 -0.74,0.41 l -9.32,14.68 a 0.88,0.88 0 0 1 -0.74,0.41 l -5.04,0.01 a 0.88,0.88 0 0 1 -0.74,-1.35 l 35.27,-55.75 a 0.88,0.88 0 0 1 0.74,-0.41 h 4.62 a 0.88,0.88 0 0 1 0.88,0.85 l 1.82,55.74 a 0.88,0.88 0 0 1 -0.88,0.91 l -4.7,0.01 a 0.88,0.88 0 0 1 -0.88,-0.86 l -0.41,-13.8 a 0.88,0.88 0 0 0 -0.87,-0.85 z m 0,-29.65 a 0.3,0.3 0 0 0 -0.56,-0.15 l -15.46,24.38 a 0.3,0.3 0 0 0 0.26,0.46 l 16.09,-0.04 a 0.3,0.3 0 0 0 0.3,-0.31 z"
         id="path10"
         inkscape:label="A" />
      <path
         d="m 289.91,193.16 q 9.24,-11.57 23.39,-9.87 c 10.56,1.27 13.57,9.26 10.5,18.72 a 0.72,0.71 9 0 1 -0.68,0.49 h -5.01 a 0.54,0.54 0 0 1 -0.53,-0.62 c 0.77,-5.32 2.18,-10.75 -4.39,-13.12 -10.55,-3.8 -20.4,8.41 -23.38,17.23 q -2.99,8.85 -4.55,15.01 c -1.87,7.37 1.23,17.23 10.76,15.5 q 11.24,-2.04 15.07,-13.44 a 0.83,0.83 0 0 1 0.79,-0.57 l 5.27,0.03 a 0.49,0.49 0 0 1 0.46,0.65 q -5.82,17.37 -22.87,18.36 c -15.43,0.9 -18.78,-11.4 -15.23,-23.79 2.51,-8.77 4.57,-17.27 10.4,-24.58 z"
         id="path9"
         inkscape:label="C" />
      <path
         d="m 332.38,236 h 24.82 a 0.61,0.61 0 0 1 0.59,0.78 l -1.06,3.78 a 0.61,0.61 0 0 1 -0.59,0.44 h -31.89 a 0.61,0.61 0 0 1 -0.59,-0.78 l 16.8,-56.28 a 0.61,0.61 0 0 1 0.58,-0.44 h 31.64 a 0.61,0.61 0 0 1 0.59,0.76 l -0.98,3.78 a 0.61,0.61 0 0 1 -0.59,0.46 h -25.52 a 0.61,0.61 0 0 0 -0.58,0.44 l -5.62,18.81 a 0.61,0.61 0 0 0 0.59,0.79 l 21.33,-0.06 a 0.61,0.61 0 0 1 0.59,0.79 l -1.14,3.8 a 0.61,0.61 0 0 1 -0.59,0.44 l -22.07,-0.03 a 0.61,0.61 0 0 0 -0.59,0.44 l -6.31,21.3 a 0.61,0.61 0 0 0 0.59,0.78 z"
         id="path11"
         inkscape:label="E" />
    </g>
    <g
       fill="#ee0000"
       id="g18"
       inkscape:label="Logo">
      <rect
         x="413"
         y="49"
         width="115.98"
         height="7"
         rx="2.8099999"
         id="rect11"
         inkscape:label="rect11" />
      <path
         d="m 600,75.06 v 3 Q 599.35,80 597,80 503.17,80 409.23,80 a 2.05,2.04 79.2 0 1 -1.9,-1.3 q -1.15,-2.94 0.71,-5.23 A 1.28,1.26 19.3 0 1 409.03,73 q 94.49,0 188.97,0 1.5,0 2,2.06 z"
         id="path12"
         inkscape:label="path2" />
      <rect
         x="400.01999"
         y="97"
         width="198.98"
         height="7"
         rx="3.48"
         id="rect12"
         inkscape:label="rect3" />
      <rect
         x="394.01999"
         y="122"
         width="113.96"
         height="7"
         rx="3.47"
         id="rect13"
         inkscape:label="rect4" />
      <rect
         x="388.01999"
         y="146"
         width="113.96"
         height="7"
         rx="3.4300001"
         id="rect14"
         inkscape:label="rect5" />
      <rect
         x="383"
         y="169"
         width="114"
         height="7"
         rx="2.8099999"
         id="rect15"
         inkscape:label="rect6" />
      <rect
         x="377.01001"
         y="194"
         width="113.98"
         height="7"
         rx="3.1700001"
         id="rect16"
         inkscape:label="rect7" />
      <rect
         x="369"
         y="218"
         width="113.98"
         height="7"
         rx="2.79"
         id="rect17"
         inkscape:label="rect8" />
      <rect
         x="362.01999"
         y="244"
         width="113.96"
         height="7"
         rx="3.47"
         id="rect18"
         inkscape:label="rect9" />
    </g>
  </g>
</svg>

<?xml version="1.0" encoding="UTF-8" standalone="no"?>
<!DOCTYPE svg PUBLIC "-//W3C//DTD SVG 1.1//EN" "http://www.w3.org/Graphics/SVG/1.1/DTD/svg11.dtd">
<svg xmlns="http://www.w3.org/2000/svg" version="1.1" viewBox="0 0 600 300">
<g fill="#000000">
<path d="
  M 233.18 56.25
  L 251.75 56.25
  A 0.67 0.67 0.0 0 1 252.39 57.11
  L 248.27 71.01
  A 0.67 0.67 0.0 0 1 247.63 71.49
  L 229.07 71.50
  A 0.67 0.67 0.0 0 1 228.42 70.64
  L 232.54 56.73
  A 0.67 0.67 0.0 0 1 233.18 56.25
  Z"
/>
<path d="
  M 63.81 128.31
  C 57.09 148.66 37.80 161.42 16.55 155.65
  C 2.70 151.89 0.68 139.77 4.66 127.68
  A 0.64 0.63 -80.3 0 1 5.26 127.25
  L 23.48 127.25
  A 0.45 0.45 0.0 0 1 23.93 127.74
  Q 23.71 129.92 23.37 132.00
  C 22.22 139.16 29.35 141.81 34.93 139.68
  C 40.08 137.71 44.00 129.36 45.64 123.79
  Q 54.54 93.50 63.58 63.25
  A 0.69 0.69 0.0 0 1 64.24 62.76
  L 82.87 62.74
  A 0.51 0.50 -81.8 0 1 83.35 63.39
  Q 68.69 113.53 63.81 128.31
  Z"
/>
<path d="
  M 253.48 101.63
  L 246.16 101.80
  A 0.72 0.72 0.0 0 1 245.46 100.88
  L 249.58 87.15
  A 0.64 0.64 0.0 0 1 250.21 86.69
  L 257.80 86.73
  A 1.03 1.03 0.0 0 0 258.79 85.99
  L 263.59 70.01
  A 0.71 0.71 0.0 0 1 264.27 69.50
  L 283.05 69.50
  A 0.42 0.42 0.0 0 1 283.45 70.04
  L 278.65 86.10
  A 0.38 0.37 8.6 0 0 279.01 86.58
  L 287.86 86.58
  A 0.48 0.47 -81.7 0 1 288.31 87.19
  L 284.13 101.24
  A 0.73 0.72 -81.2 0 1 283.44 101.75
  L 274.51 101.75
  A 0.69 0.69 0.0 0 0 273.85 102.24
  Q 268.82 118.51 264.15 134.83
  C 262.43 140.84 267.69 140.69 271.53 139.80
  A 0.62 0.61 -0.3 0 1 272.27 140.53
  L 269.07 155.00
  A 0.97 0.96 89.1 0 1 268.38 155.72
  C 252.48 159.97 238.46 155.65 244.07 135.77
  Q 248.78 119.11 253.95 102.25
  A 0.48 0.48 0.0 0 0 253.48 101.63
  Z"
/>
<path d="
  M 285.17 119.50
  C 291.73 98.77 308.73 81.94 332.00 86.25
  Q 337.39 87.25 340.87 91.59
  C 348.96 101.67 343.20 117.37 339.64 127.54
  A 0.70 0.70 0.0 0 1 338.98 128.00
  L 303.54 128.00
  A 0.43 0.42 -84.1 0 0 303.13 128.34
  C 299.39 146.73 323.48 139.78 331.27 136.28
  A 0.43 0.43 0.0 0 1 331.88 136.65
  L 332.53 148.93
  A 0.81 0.80 -16.7 0 1 332.12 149.68
  C 305.46 164.77 272.79 158.66 285.17 119.50
  Z
  M 307.65 114.70
  L 323.33 114.76
  A 1.19 1.19 0.0 0 0 324.47 113.92
  C 325.47 110.68 326.71 106.70 324.76 103.65
  A 1.54 1.52 -5.6 0 0 324.02 103.05
  C 315.54 99.83 309.75 107.36 307.31 114.21
  A 0.36 0.36 0.0 0 0 307.65 114.70
  Z"
/>
<path d="
  M 377.24 95.48
  A 0.34 0.34 0.0 0 0 377.86 95.75
  C 382.85 88.26 388.53 86.83 397.23 86.36
  A 0.36 0.36 0.0 0 1 397.58 86.85
  L 390.49 104.24
  A 0.79 0.79 0.0 0 1 389.76 104.73
  C 382.04 104.70 375.11 104.46 372.54 113.14
  Q 366.26 134.29 359.97 155.43
  A 0.82 0.82 0.0 0 1 359.19 156.00
  L 340.36 155.99
  A 0.35 0.34 8.0 0 1 340.02 155.55
  L 360.46 87.28
  A 0.74 0.73 -81.4 0 1 361.16 86.76
  L 378.82 86.72
  A 0.43 0.42 -83.0 0 1 379.23 87.25
  L 377.24 95.48
  Z"
/>
<path d="
  M 109.18 146.94
  A 0.46 0.46 0.0 0 0 108.37 146.62
  Q 101.55 155.19 91.51 156.72
  C 73.30 159.51 71.69 143.15 75.35 130.27
  Q 81.49 108.63 88.05 87.19
  A 0.63 0.62 8.0 0 1 88.65 86.74
  L 107.28 86.72
  A 0.53 0.53 0.0 0 1 107.79 87.41
  Q 101.50 108.16 95.45 128.87
  C 94.33 132.69 92.51 139.96 98.93 140.34
  Q 105.28 140.73 110.11 136.56
  A 1.91 1.89 78.4 0 0 110.67 135.70
  L 125.15 87.42
  A 0.90 0.90 0.0 0 1 126.00 86.78
  L 144.45 86.68
  A 0.61 0.60 -82.1 0 1 145.03 87.46
  L 124.50 156.57
  A 0.81 0.79 -81.6 0 1 123.74 157.15
  L 109.07 157.21
  A 0.69 0.69 0.0 0 1 108.38 156.46
  L 109.18 146.94
  Z"
/>
<path d="
  M 172.96 93.18
  A 0.38 0.37 -16.1 0 0 173.59 93.52
  C 187.00 80.52 207.79 85.97 206.46 107.21
  Q 205.24 126.53 194.53 142.28
  C 188.53 151.11 177.64 158.32 166.75 156.97
  Q 159.98 156.12 156.95 149.97
  A 0.24 0.24 0.0 0 0 156.51 150.01
  L 146.92 182.60
  A 0.82 0.82 0.0 0 1 146.13 183.19
  L 127.53 183.26
  A 0.53 0.52 8.2 0 1 127.02 182.59
  L 155.50 87.18
  A 0.60 0.60 0.0 0 1 156.07 86.76
  L 173.41 86.73
  A 0.80 0.80 0.0 0 1 174.19 87.71
  L 172.96 93.18
  Z
  M 186.12 110.99
  C 187.50 99.42 177.16 99.93 171.19 105.37
  Q 169.43 106.98 168.43 110.26
  Q 164.89 121.90 161.47 133.59
  C 160.79 135.92 160.69 137.88 163.03 139.03
  C 178.74 146.76 184.87 121.45 186.12 110.99
  Z"
/>
<path d="
  M 243.29 87.31
  L 222.81 155.65
  A 0.49 0.49 0.0 0 1 222.35 156.00
  L 203.43 156.00
  A 0.49 0.49 0.0 0 1 202.96 155.37
  L 223.38 87.13
  A 0.49 0.49 0.0 0 1 223.84 86.78
  L 242.82 86.68
  A 0.49 0.49 0.0 0 1 243.29 87.31
  Z"
/>
<path d="
  M 289.91 193.16
  Q 299.15 181.59 313.30 183.29
  C 323.86 184.56 326.87 192.55 323.80 202.01
  A 0.72 0.71 9.0 0 1 323.12 202.50
  L 318.11 202.50
  A 0.54 0.54 0.0 0 1 317.58 201.88
  C 318.35 196.56 319.76 191.13 313.19 188.76
  C 302.64 184.96 292.79 197.17 289.81 205.99
  Q 286.82 214.84 285.26 221.00
  C 283.39 228.37 286.49 238.23 296.02 236.50
  Q 307.26 234.46 311.09 223.06
  A 0.83 0.83 0.0 0 1 311.88 222.49
  L 317.15 222.52
  A 0.49 0.49 0.0 0 1 317.61 223.17
  Q 311.79 240.54 294.74 241.53
  C 279.31 242.43 275.96 230.13 279.51 217.74
  C 282.02 208.97 284.08 200.47 289.91 193.16
  Z"
/>
<path d="
  M 260.33 225.50
  L 241.32 225.50
  A 0.88 0.88 0.0 0 0 240.58 225.91
  L 231.26 240.59
  A 0.88 0.88 0.0 0 1 230.52 241.00
  L 225.48 241.01
  A 0.88 0.88 0.0 0 1 224.74 239.66
  L 260.01 183.91
  A 0.88 0.88 0.0 0 1 260.75 183.50
  L 265.37 183.50
  A 0.88 0.88 0.0 0 1 266.25 184.35
  L 268.07 240.09
  A 0.88 0.88 0.0 0 1 267.19 241.00
  L 262.49 241.01
  A 0.88 0.88 0.0 0 1 261.61 240.15
  L 261.20 226.35
  A 0.88 0.88 0.0 0 0 260.33 225.50
  Z
  M 260.33 195.85
  A 0.30 0.30 0.0 0 0 259.77 195.70
  L 244.31 220.08
  A 0.30 0.30 0.0 0 0 244.57 220.54
  L 260.66 220.50
  A 0.30 0.30 0.0 0 0 260.96 220.19
  L 260.33 195.85
  Z"
/>
<path d="
  M 332.38 236.00
  L 357.20 236.00
  A 0.61 0.61 0.0 0 1 357.79 236.78
  L 356.73 240.56
  A 0.61 0.61 0.0 0 1 356.14 241.00
  L 324.25 241.00
  A 0.61 0.61 0.0 0 1 323.66 240.22
  L 340.46 183.94
  A 0.61 0.61 0.0 0 1 341.04 183.50
  L 372.68 183.50
  A 0.61 0.61 0.0 0 1 373.27 184.26
  L 372.29 188.04
  A 0.61 0.61 0.0 0 1 371.70 188.50
  L 346.18 188.50
  A 0.61 0.61 0.0 0 0 345.60 188.94
  L 339.98 207.75
  A 0.61 0.61 0.0 0 0 340.57 208.54
  L 361.90 208.48
  A 0.61 0.61 0.0 0 1 362.49 209.27
  L 361.35 213.07
  A 0.61 0.61 0.0 0 1 360.76 213.51
  L 338.69 213.48
  A 0.61 0.61 0.0 0 0 338.10 213.92
  L 331.79 235.22
  A 0.61 0.61 0.0 0 0 332.38 236.00
  Z"
/>
</g>
<g fill="#ee0000">
<rect x="413.00" y="49.00" width="115.98" height="7.00" rx="2.81"/>
<path d="
  M 600.00 75.06
  L 600.00 78.06
  Q 599.35 80.00 597.00 80.00
  Q 503.17 80.00 409.23 80.00
  A 2.05 2.04 79.2 0 1 407.33 78.70
  Q 406.18 75.76 408.04 73.47
  A 1.28 1.26 19.3 0 1 409.03 73.00
  Q 503.52 73.00 598.00 73.00
  Q 599.50 73.00 600.00 75.06
  Z"
/>
<rect x="400.02" y="97.00" width="198.98" height="7.00" rx="3.48"/>
<rect x="394.02" y="122.00" width="113.96" height="7.00" rx="3.47"/>
<rect x="388.02" y="146.00" width="113.96" height="7.00" rx="3.43"/>
<rect x="383.00" y="169.00" width="114.00" height="7.00" rx="2.81"/>
<rect x="377.01" y="194.00" width="113.98" height="7.00" rx="3.17"/>
<rect x="369.00" y="218.00" width="113.98" height="7.00" rx="2.79"/>
<rect x="362.02" y="244.00" width="113.96" height="7.00" rx="3.47"/>
</g>
</svg>
